X:5 
T:Frissonnante Musette (Valse Musette)
C:A. Boccoz
A:France
I:Rights for public performance
Q:1/4=180
M:3/4
P:IADBACA
K:G
P:I
zD EF ED|
P:A
"G"B3 d BG |F3 d BG |E6 |\
z D EF ED |BB ^AB dB |AG FG AB |"Am"[c6A6E6] |
"E7"z E F^G AB |"Am"c3 e cA |G3 e cG |"D7"F6 |\
z D ED ^CD |A3 F ED |^A3 F ED |"(G)"B6 |
z D EF ED |"G"B3 d BG |F3 d BG |E6 |\
z D EF ED |BB ^AB dB |"G7"AG FG AB |"C"A6 |
z E ^DE FG |A3 G FG |"Cm"^A3 G FG |"G"B6 |\
z D EF ED |"A7"[E6^C6] |"D7"[F6C6] |"(G)"[G6D6B,6] ||
P:D
[G2D2B,2] z F G^G |
P:B
K:D
|:"A7"AG EG EG |AG EG EG |\
"D"AF DF DF |A2 z F Ad |"A7"cd cd cd |Bc Bc Bc |
"D"A6-|A6 |"A7"AG EG EG |AG EG EG |\
"D"AF DF DF |A2 z F Ad |
"A7"cd Bc AB |GA FG EF |\
D6 |1z F GA GF :|2z D EF ED||
P:C
K:C
"G"[G6D6B,6] |[G2D2B,2] ^F2 =F2 |"C"[E4C4] [G2E2] |\
[A4E4] [c2E2] |"G7"[B6F6] |[B2F2] A2 G2 |[F4B,4] [G2B,2] |\
[B4F4] [d2F2] |"C"[c6E6] |[c2E2] d2 e2 |
B2 c2 d2 |"Cm"A2 B2 c2 |"G7"F6 |\
F2 D2 E2 |F2 G2 A2 |B2 c2 B2 |"C"A4 E2 |\
G6 |[E4C4] [G2E2] |[A4E4] [c2E2] |"G7"[B6F6] |[B2F2] A2 G2 |
"E7"F4 E2 |B4 d2 |"Am"[c6A6E6] |\
z2 B2 c2 |"F"A4 c2 |"Fm"_A4 c2 |G6 |\
"C"[E2C2] [F2D2] [G2E2] |"D7"[A6^F6] |\
"G7"[B6F6] |"(C)"[c6E6] |z "(G)"D E^F ED |]
